exports/emissions-of-particulate-matter_v2_850x600.svg

<svg xmlns="http://www.w3.org/2000/svg" version="1.1" style="background-color:#fff;-webkit-font-smoothing:antialiased" width="850" height="600" font-family="'Helvetica Neue',Helvetica,Arial,sans-serif" font-size="18" text-rendering="optimizeLegibility"><g class="ChartTab"><g class="HeaderView"><g opacity=".8" transform="matrix(.31 0 0 .31 770 15)"><a xmlns:xlink="http://www.w3.org/1999/xlink" xlink:href="https://ourworldindata.org" target="_blank"><g><path fill="#1B2543" d="M0 0h211.2v130.1H0z"/><path fill="#E63912" d="M0 112.2h211.2v17.9H0z"/><g><path fill="none" d="M1.2 12.3h210.2v99.2H1.2z"/><path fill="#FFF" d="M37.8 32.2c0 12.7-7.7 19.4-17.1 19.4-9.7 0-16.6-7.5-16.6-18.7 0-11.7 7.3-19.3 17.1-19.3 10.1.1 16.6 7.7 16.6 18.6zm-28.6.6c0 7.9 4.3 14.9 11.8 14.9 7.5 0 11.8-6.9 11.8-15.3 0-7.3-3.8-14.9-11.8-14.9-7.9 0-11.8 7.3-11.8 15.3zM62.7 43.8c0 2.7.1 5.1.2 7.2h-4.3l-.3-4.3h-.1c-1.3 2.1-4 4.9-8.8 4.9-4.2 0-9.1-2.3-9.1-11.6V24.6h4.8v14.6c0 5 1.5 8.4 5.9 8.4 3.2 0 5.5-2.2 6.3-4.4.3-.7.4-1.6.4-2.5V24.6h4.8v19.2zM67.3 32.8c0-3.1-.1-5.8-.2-8.2h4.2l.2 5.2h.2c1.2-3.5 4.1-5.8 7.3-5.8.5 0 .9.1 1.4.2v4.5c-.5-.1-1-.2-1.6-.2-3.4 0-5.8 2.6-6.5 6.2-.1.7-.2 1.4-.2 2.2V51h-4.8V32.8zM95.4 51L86 14.2h5l4.4 18.6c1.1 4.6 2.1 9.2 2.7 12.7h.1c.6-3.7 1.8-8 3-12.8l4.9-18.5h5l4.5 18.7c1 4.4 2 8.7 2.6 12.6h.1c.8-4 1.8-8.1 3-12.7l4.9-18.5h4.9L120.6 51h-5L111 31.9c-1.1-4.7-1.9-8.3-2.4-12h-.1c-.7 3.7-1.5 7.3-2.8 12L100.4 51h-5zM154.9 37.6c0 9.8-6.8 14-13.2 14-7.2 0-12.7-5.2-12.7-13.6 0-8.8 5.8-14 13.1-14 7.7 0 12.8 5.5 12.8 13.6zm-21 .3c0 5.8 3.3 10.1 8 10.1 4.6 0 8-4.3 8-10.3 0-4.5-2.2-10.1-7.9-10.1s-8.1 5.2-8.1 10.3zM158.2 32.8c0-3.1-.1-5.8-.2-8.2h4.2l.2 5.2h.2c1.2-3.5 4.1-5.8 7.3-5.8.5 0 .9.1 1.4.2v4.5c-.5-.1-1-.2-1.6-.2-3.4 0-5.8 2.6-6.5 6.2-.1.7-.2 1.4-.2 2.2V51h-4.8V32.8zM173.5 12.3h4.8V51h-4.8V12.3zM206.5 12.3v31.9c0 2.3.1 5 .2 6.8h-4.3l-.2-4.6h-.2c-1.5 2.9-4.7 5.2-9 5.2-6.4 0-11.3-5.4-11.3-13.4-.1-8.8 5.4-14.2 11.9-14.2 4 0 6.8 1.9 8 4h.1V12.3h4.8zm-4.8 23.1c0-.6-.1-1.4-.2-2a7 7 0 00-6.9-5.6c-5 0-7.9 4.4-7.9 10.2 0 5.3 2.6 9.8 7.8 9.8 3.2 0 6.2-2.1 7.1-5.7.2-.7.2-1.3.2-2.1v-4.6zM42.8 64c.1 1.6-1.1 2.9-3.1 2.9-1.7 0-2.9-1.3-2.9-2.9 0-1.7 1.3-3 3-3 1.9 0 3 1.3 3 3zm-5.4 33.8V71.4h4.8v26.4h-4.8zM47.5 78.6c0-2.7-.1-5-.2-7.1h4.3l.3 4.4h.1c1.3-2.5 4.4-5 8.8-5 3.7 0 9.4 2.2 9.4 11.2v15.8h-4.8V82.6c0-4.3-1.6-7.8-6.1-7.8-3.2 0-5.6 2.2-6.5 4.9-.2.6-.3 1.4-.3 2.2v15.9h-4.8V78.6zM84 61.6c2.9-.4 6.3-.8 10.1-.8 6.8 0 11.7 1.6 14.9 4.6 3.3 3 5.2 7.3 5.2 13.2 0 6-1.9 10.9-5.3 14.3-3.4 3.4-9.1 5.3-16.3 5.3-3.4 0-6.2-.2-8.6-.4V61.6zm4.8 32.5c1.2.2 3 .3 4.8.3 10.2 0 15.7-5.7 15.7-15.6.1-8.7-4.9-14.2-14.9-14.2-2.5 0-4.3.2-5.6.5v29zM132.1 97.8l-.4-3.3h-.2a9.79 9.79 0 01-8.1 3.9c-5.4 0-8.1-3.8-8.1-7.6 0-6.4 5.7-9.9 15.9-9.8v-.5c0-2.2-.6-6.1-6-6.1-2.5 0-5 .8-6.9 2l-1.1-3.2c2.2-1.4 5.4-2.3 8.7-2.3 8.1 0 10.1 5.5 10.1 10.8v9.9c0 2.3.1 4.5.4 6.3h-4.3zm-.7-13.4c-5.3-.1-11.2.8-11.2 5.9 0 3.1 2.1 4.6 4.5 4.6 3.4 0 5.6-2.2 6.4-4.4.2-.5.3-1 .3-1.5v-4.6zM146.6 63.9v7.6h6.9v3.7h-6.9v14.2c0 3.3.9 5.1 3.6 5.1 1.3 0 2.2-.2 2.8-.3l.2 3.6c-.9.4-2.4.7-4.3.7-2.2 0-4-.7-5.2-2-1.4-1.4-1.9-3.8-1.9-6.9V75.1h-4.1v-3.7h4.1v-6.3l4.8-1.2zM171.4 97.8l-.4-3.3h-.2a9.79 9.79 0 01-8.1 3.9c-5.4 0-8.1-3.8-8.1-7.6 0-6.4 5.7-9.9 15.9-9.8v-.5c0-2.2-.6-6.1-6-6.1-2.5 0-5 .8-6.9 2l-1.1-3.2c2.2-1.4 5.4-2.3 8.7-2.3 8.1 0 10.1 5.5 10.1 10.8v9.9c0 2.3.1 4.5.4 6.3h-4.3zm-.7-13.4c-5.3-.1-11.2.8-11.2 5.9 0 3.1 2.1 4.6 4.5 4.6 3.4 0 5.6-2.2 6.4-4.4.2-.5.3-1 .3-1.5v-4.6z"/></g></g></a></g><a href="https://ourworldindata.org/grapher/emissions-of-particulate-matter" target="_blank"><text font-size="27" x="15" y="36.6" fill="#555"><tspan x="15" y="36.6">Emissions of particulate matter, United Kingdom</tspan></text></a><text font-size="14.4" x="15" y="55.5" fill="#666"><tspan x="15" y="55.52">Annual emissions of particulate matter from all human-induced sources. This is measured in terms of PM₁₀ and</tspan><tspan x="15" y="71.36">PM₂.₅, which denotes particulate matter less than 10 and 2.5 microns in diameter, respectively.</tspan></text></g><g class="LineChart"><defs><clipPath id="a"><path d="M122.43 0h830v925.2h-830z"/></clipPath></defs><g class="AxisBoxView"><g class="HorizontalAxis" fill="#666" text-anchor="middle" font-size="16.2"><text x="132.4" y="556.5">1970</text><text x="271" y="556.5">1980</text><text x="409.6" y="556.5">1990</text><text x="548.2" y="556.5">2000</text><text x="686.8" y="556.5">2010</text><text x="770" y="556.5">2016</text></g><g class="VerticalAxis" fill="#666" dominant-baseline="middle" text-anchor="end" font-size="16.2"><text x="127.43" y="535.3">0 tonnes</text><text x="127.43" y="466.2">100,000 tonnes</text><text x="127.43" y="397.1">200,000 tonnes</text><text x="127.43" y="328.1">300,000 tonnes</text><text x="127.43" y="259">400,000 tonnes</text><text x="127.43" y="189.9">500,000 tonnes</text><text x="127.43" y="120.8">600,000 tonnes</text></g><g class="AxisGridLines"><path stroke="#ccc" d="M132.43 535.3h637.54"/><path stroke="#ddd" stroke-dasharray="3,2" d="M132.43 466.2h637.54M132.43 397.1h637.54M132.43 328.1h637.54M132.43 259h637.54M132.43 189.9h637.54M132.43 120.8h637.54"/></g><g class="AxisGridLines" stroke="#ddd" stroke-dasharray="3,2"><path d="M132.4 535.3V93.9M271 535.3V93.9M409.6 535.3V93.9M548.2 535.3V93.9M686.8 535.3V93.9"/></g></g><g clip-path="url(#a)"><g class="HeightedLegend clickable"><g class="legendMark"><path fill="#ca2628" d="M779.97 416.65h10v2.5h-10z"/><text font-size="14.4" x="795" y="422.2" fill="#333"><tspan x="794.97" y="422.22">PM₁₀</tspan></text></g><g class="legendMark"><path fill="#3360a9" d="M779.97 459.45h10v2.5h-10z"/><text font-size="14.4" x="795" y="465" fill="#333"><tspan x="794.97" y="465.02">PM₂.₅</tspan></text></g></g><g class="Lines"><g class="key-United-Kingdom_0"><path stroke="#3360a9" stroke-linecap="round" d="M132 191l14 38 14 34 14-5 14 19 14 29 14 4 13 2 14 9 14-5 14 23 14 8 14 3 14 6 14 17 13-16 14-7 14 13 14 4 14 1 14 4h14l13 7 14 11 14 6 14 12 14 2 14 6 14 5 13 2 14 10 14 1 14 12 14-1 14 1 14 2 13 1 14 3 14 1 14 4 14-5 14 7 14-3 13-1 14 4 14-1 14 3" fill="none" stroke-width="1.5"/><g fill="#3360a9"><circle cx="132" cy="191" r="2"/><circle cx="146" cy="229" r="2"/><circle cx="160" cy="263" r="2"/><circle cx="174" cy="258" r="2"/><circle cx="188" cy="277" r="2"/><circle cx="202" cy="306" r="2"/><circle cx="216" cy="310" r="2"/><circle cx="229" cy="312" r="2"/><circle cx="243" cy="321" r="2"/><circle cx="257" cy="316" r="2"/><circle cx="271" cy="339" r="2"/><circle cx="285" cy="347" r="2"/><circle cx="299" cy="350" r="2"/><circle cx="313" cy="356" r="2"/><circle cx="327" cy="373" r="2"/><circle cx="340" cy="357" r="2"/><circle cx="354" cy="350" r="2"/><circle cx="368" cy="363" r="2"/><circle cx="382" cy="367" r="2"/><circle cx="396" cy="368" r="2"/><circle cx="410" cy="372" r="2"/><circle cx="424" cy="372" r="2"/><circle cx="437" cy="379" r="2"/><circle cx="451" cy="390" r="2"/><circle cx="465" cy="396" r="2"/><circle cx="479" cy="408" r="2"/><circle cx="493" cy="410" r="2"/><circle cx="507" cy="416" r="2"/><circle cx="521" cy="421" r="2"/><circle cx="534" cy="423" r="2"/><circle cx="548" cy="433" r="2"/><circle cx="562" cy="434" r="2"/><circle cx="576" cy="446" r="2"/><circle cx="590" cy="445" r="2"/><circle cx="604" cy="446" r="2"/><circle cx="618" cy="448" r="2"/><circle cx="631" cy="449" r="2"/><circle cx="645" cy="452" r="2"/><circle cx="659" cy="453" r="2"/><circle cx="673" cy="457" r="2"/><circle cx="687" cy="452" r="2"/><circle cx="701" cy="459" r="2"/><circle cx="715" cy="456" r="2"/><circle cx="728" cy="455" r="2"/><circle cx="742" cy="459" r="2"/><circle cx="756" cy="458" r="2"/><circle cx="770" cy="461" r="2"/></g></g><g class="key-United-Kingdom_1"><path stroke="#ca2628" stroke-linecap="round" d="M132 94l14 32 14 45 14-18 14 35 14 19 14 7 13 3 14 7 14-3 14 22 14 11 14 6 14 2 14 29 13-26 14-7 14 4 14 7 14-3 14 10 14 2 13 16 14 17 14 12 14 16 14 1 14 12 14 9 13 5 14 11 14-1 14 19 14-5 14 5 14 3 13 2 14 5 14 6 14 8 14-11 14 10 14-1 13-6 14 6 14-2 14 3" fill="none" stroke-width="1.5"/><g fill="#ca2628"><circle cx="132" cy="94" r="2"/><circle cx="146" cy="126" r="2"/><circle cx="160" cy="171" r="2"/><circle cx="174" cy="153" r="2"/><circle cx="188" cy="188" r="2"/><circle cx="202" cy="207" r="2"/><circle cx="216" cy="214" r="2"/><circle cx="229" cy="217" r="2"/><circle cx="243" cy="224" r="2"/><circle cx="257" cy="221" r="2"/><circle cx="271" cy="243" r="2"/><circle cx="285" cy="254" r="2"/><circle cx="299" cy="260" r="2"/><circle cx="313" cy="262" r="2"/><circle cx="327" cy="291" r="2"/><circle cx="340" cy="265" r="2"/><circle cx="354" cy="258" r="2"/><circle cx="368" cy="262" r="2"/><circle cx="382" cy="269" r="2"/><circle cx="396" cy="266" r="2"/><circle cx="410" cy="276" r="2"/><circle cx="424" cy="278" r="2"/><circle cx="437" cy="294" r="2"/><circle cx="451" cy="311" r="2"/><circle cx="465" cy="323" r="2"/><circle cx="479" cy="339" r="2"/><circle cx="493" cy="340" r="2"/><circle cx="507" cy="352" r="2"/><circle cx="521" cy="361" r="2"/><circle cx="534" cy="366" r="2"/><circle cx="548" cy="377" r="2"/><circle cx="562" cy="376" r="2"/><circle cx="576" cy="395" r="2"/><circle cx="590" cy="390" r="2"/><circle cx="604" cy="395" r="2"/><circle cx="618" cy="398" r="2"/><circle cx="631" cy="400" r="2"/><circle cx="645" cy="405" r="2"/><circle cx="659" cy="411" r="2"/><circle cx="673" cy="419" r="2"/><circle cx="687" cy="408" r="2"/><circle cx="701" cy="418" r="2"/><circle cx="715" cy="417" r="2"/><circle cx="728" cy="411" r="2"/><circle cx="742" cy="417" r="2"/><circle cx="756" cy="415" r="2"/><circle cx="770" cy="418" r="2"/></g></g></g></g></g><g class="SourcesFooter" fill="#777"><g class="clickable" fill="#777"><text font-size="12.6" x="15" y="581.6"><tspan x="15" y="581.58">Source: UK DEFRA</tspan></text></g><text font-size="12.6" x="649" y="581.6"><tspan x="649.02" y="581.58"><a target="_blank" href="https://ourworldindata.org" fill="#777">OurWorldInData.org</a> • <a href="http://creativecommons.org/licenses/by-sa/4.0/deed.en_US" target="_blank" fill="#777">CC BY-SA</a></tspan></text></g></g></svg>

<svg xmlns="http://www.w3.org/2000/svg" version="1.1" style="font-family: 'Helvetica Neue', Helvetica, Arial, sans-serif; font-size: 18px; background-color: white; text-rendering: optimizeLegibility; -webkit-font-smoothing: antialiased;" width="850" height="600"><g class="ChartTab"><g class="HeaderView"><g opacity="0.8" transform="translate(770, 15) scale(0.31)"><a xmlns:xlink="http://www.w3.org/1999/xlink" xlink:href="https://ourworldindata.org" target="_blank"><g><rect x="0" y="0" fill="#1B2543" width="211.2" height="130.1"/><rect x="0" y="112.2" fill="#E63912" width="211.2" height="17.9"/><g><rect x="1.2" y="12.3" fill="none" width="210.2" height="99.2"/><path fill="#FFFFFF" d="M37.8,32.2c0,12.7-7.7,19.4-17.1,19.4c-9.7,0-16.6-7.5-16.6-18.7c0-11.7,7.3-19.3,17.1-19.3 C31.3,13.7,37.8,21.3,37.8,32.2z M9.2,32.8c0,7.9,4.3,14.9,11.8,14.9c7.5,0,11.8-6.9,11.8-15.3c0-7.3-3.8-14.9-11.8-14.9 C13.1,17.5,9.2,24.8,9.2,32.8z"/><path fill="#FFFFFF" d="M62.7,43.8c0,2.7,0.1,5.1,0.2,7.2h-4.3l-0.3-4.3h-0.1c-1.3,2.1-4,4.9-8.8,4.9c-4.2,0-9.1-2.3-9.1-11.6 V24.6h4.8v14.6c0,5,1.5,8.4,5.9,8.4c3.2,0,5.5-2.2,6.3-4.4c0.3-0.7,0.4-1.6,0.4-2.5V24.6h4.8V43.8z"/><path fill="#FFFFFF" d="M67.3,32.8c0-3.1-0.1-5.8-0.2-8.2h4.2l0.2,5.2h0.2c1.2-3.5,4.1-5.8,7.3-5.8c0.5,0,0.9,0.1,1.4,0.2v4.5 c-0.5-0.1-1-0.2-1.6-0.2c-3.4,0-5.8,2.6-6.5,6.2c-0.1,0.7-0.2,1.4-0.2,2.2V51h-4.8V32.8z"/><path fill="#FFFFFF" d="M95.4,51l-9.4-36.8h5l4.4,18.6c1.1,4.6,2.1,9.2,2.7,12.7h0.1c0.6-3.7,1.8-8,3-12.8l4.9-18.5h5l4.5,18.7 c1,4.4,2,8.7,2.6,12.6h0.1c0.8-4,1.8-8.1,3-12.7l4.9-18.5h4.9L120.6,51h-5L111,31.9c-1.1-4.7-1.9-8.3-2.4-12h-0.1 c-0.7,3.7-1.5,7.3-2.8,12L100.4,51H95.4z"/><path fill="#FFFFFF" d="M154.9,37.6c0,9.8-6.8,14-13.2,14c-7.2,0-12.7-5.2-12.7-13.6c0-8.8,5.8-14,13.1-14 C149.8,24,154.9,29.5,154.9,37.6z M133.9,37.9c0,5.8,3.3,10.1,8,10.1c4.6,0,8-4.3,8-10.3c0-4.5-2.2-10.1-7.9-10.1 C136.3,27.6,133.9,32.8,133.9,37.9z"/><path fill="#FFFFFF" d="M158.2,32.8c0-3.1-0.1-5.8-0.2-8.2h4.2l0.2,5.2h0.2c1.2-3.5,4.1-5.8,7.3-5.8c0.5,0,0.9,0.1,1.4,0.2v4.5 c-0.5-0.1-1-0.2-1.6-0.2c-3.4,0-5.8,2.6-6.5,6.2c-0.1,0.7-0.2,1.4-0.2,2.2V51h-4.8V32.8z"/><path fill="#FFFFFF" d="M173.5,12.3h4.8V51h-4.8V12.3z"/><path fill="#FFFFFF" d="M206.5,12.3v31.9c0,2.3,0.1,5,0.2,6.8h-4.3l-0.2-4.6H202c-1.5,2.9-4.7,5.2-9,5.2 c-6.4,0-11.3-5.4-11.3-13.4c-0.1-8.8,5.4-14.2,11.9-14.2c4,0,6.8,1.9,8,4h0.1V12.3H206.5z M201.7,35.4c0-0.6-0.1-1.4-0.2-2 c-0.7-3.1-3.3-5.6-6.9-5.6c-5,0-7.9,4.4-7.9,10.2c0,5.3,2.6,9.8,7.8,9.8c3.2,0,6.2-2.1,7.1-5.7c0.2-0.7,0.2-1.3,0.2-2.1V35.4z"/><path fill="#FFFFFF" d="M42.8,64c0.1,1.6-1.1,2.9-3.1,2.9c-1.7,0-2.9-1.3-2.9-2.9c0-1.7,1.3-3,3-3C41.7,61,42.8,62.3,42.8,64z M37.4,97.8V71.4h4.8v26.4H37.4z"/><path fill="#FFFFFF" d="M47.5,78.6c0-2.7-0.1-5-0.2-7.1h4.3l0.3,4.4h0.1c1.3-2.5,4.4-5,8.8-5c3.7,0,9.4,2.2,9.4,11.2v15.8h-4.8 V82.6c0-4.3-1.6-7.8-6.1-7.8c-3.2,0-5.6,2.2-6.5,4.9c-0.2,0.6-0.3,1.4-0.3,2.2v15.9h-4.8V78.6z"/><path fill="#FFFFFF" d="M84,61.6c2.9-0.4,6.3-0.8,10.1-0.8c6.8,0,11.7,1.6,14.9,4.6c3.3,3,5.2,7.3,5.2,13.2c0,6-1.9,10.9-5.3,14.3 c-3.4,3.4-9.1,5.3-16.3,5.3c-3.4,0-6.2-0.2-8.6-0.4V61.6z M88.8,94.1c1.2,0.2,3,0.3,4.8,0.3c10.2,0,15.7-5.7,15.7-15.6 c0.1-8.7-4.9-14.2-14.9-14.2c-2.5,0-4.3,0.2-5.6,0.5V94.1z"/><path fill="#FFFFFF" d="M132.1,97.8l-0.4-3.3h-0.2c-1.5,2.1-4.3,3.9-8.1,3.9c-5.4,0-8.1-3.8-8.1-7.6c0-6.4,5.7-9.9,15.9-9.8v-0.5 c0-2.2-0.6-6.1-6-6.1c-2.5,0-5,0.8-6.9,2l-1.1-3.2c2.2-1.4,5.4-2.3,8.7-2.3c8.1,0,10.1,5.5,10.1,10.8v9.9c0,2.3,0.1,4.5,0.4,6.3 H132.1z M131.4,84.4c-5.3-0.1-11.2,0.8-11.2,5.9c0,3.1,2.1,4.6,4.5,4.6c3.4,0,5.6-2.2,6.4-4.4c0.2-0.5,0.3-1,0.3-1.5V84.4z"/><path fill="#FFFFFF" d="M146.6,63.9v7.6h6.9v3.7h-6.9v14.2c0,3.3,0.9,5.1,3.6,5.1c1.3,0,2.2-0.2,2.8-0.3l0.2,3.6 c-0.9,0.4-2.4,0.7-4.3,0.7c-2.2,0-4-0.7-5.2-2c-1.4-1.4-1.9-3.8-1.9-6.9V75.1h-4.1v-3.7h4.1v-6.3L146.6,63.9z"/><path fill="#FFFFFF" d="M171.4,97.8l-0.4-3.3h-0.2c-1.5,2.1-4.3,3.9-8.1,3.9c-5.4,0-8.1-3.8-8.1-7.6c0-6.4,5.7-9.9,15.9-9.8v-0.5 c0-2.2-0.6-6.1-6-6.1c-2.5,0-5,0.8-6.9,2l-1.1-3.2c2.2-1.4,5.4-2.3,8.7-2.3c8.1,0,10.1,5.5,10.1,10.8v9.9c0,2.3,0.1,4.5,0.4,6.3 H171.4z M170.7,84.4c-5.3-0.1-11.2,0.8-11.2,5.9c0,3.1,2.1,4.6,4.5,4.6c3.4,0,5.6-2.2,6.4-4.4c0.2-0.5,0.3-1,0.3-1.5V84.4z"/></g></g></a></g><a href="https://ourworldindata.org/grapher/emissions-of-particulate-matter" target="_blank"><text font-size="27.00" x="15.0" y="36.6" fill="#555"><tspan x="15" y="36.6">Emissions of particulate matter, United Kingdom</tspan></text></a><text font-size="14.40" x="15.0" y="55.5" fill="#666"><tspan x="15" y="55.519999999999996">Annual emissions of particulate matter from all human-induced sources. This is measured in terms of PM₁₀ and</tspan><tspan x="15" y="71.36">PM₂.₅, which denotes particulate matter less than 10 and 2.5 microns in diameter, respectively.</tspan></text></g><g class="LineChart"><defs><clipPath id="boundsClip-3"><rect x="122.428" y="0" width="830" height="925.2"></rect></clipPath></defs><g class="AxisBoxView"><g class="HorizontalAxis"><text x="132.4" y="556.5" fill="#666" text-anchor="middle" font-size="16.2">1970</text><text x="271" y="556.5" fill="#666" text-anchor="middle" font-size="16.2">1980</text><text x="409.6" y="556.5" fill="#666" text-anchor="middle" font-size="16.2">1990</text><text x="548.2" y="556.5" fill="#666" text-anchor="middle" font-size="16.2">2000</text><text x="686.8" y="556.5" fill="#666" text-anchor="middle" font-size="16.2">2010</text><text x="770" y="556.5" fill="#666" text-anchor="middle" font-size="16.2">2016</text></g><g class="VerticalAxis"><text x="127.43" y="535.3" fill="#666" dominant-baseline="middle" text-anchor="end" font-size="16.2">0 tonnes</text><text x="127.43" y="466.2" fill="#666" dominant-baseline="middle" text-anchor="end" font-size="16.2">100,000 tonnes</text><text x="127.43" y="397.1" fill="#666" dominant-baseline="middle" text-anchor="end" font-size="16.2">200,000 tonnes</text><text x="127.43" y="328.1" fill="#666" dominant-baseline="middle" text-anchor="end" font-size="16.2">300,000 tonnes</text><text x="127.43" y="259" fill="#666" dominant-baseline="middle" text-anchor="end" font-size="16.2">400,000 tonnes</text><text x="127.43" y="189.9" fill="#666" dominant-baseline="middle" text-anchor="end" font-size="16.2">500,000 tonnes</text><text x="127.43" y="120.8" fill="#666" dominant-baseline="middle" text-anchor="end" font-size="16.2">600,000 tonnes</text></g><g class="AxisGridLines"><line x1="132.43" y1="535.3" x2="769.97" y2="535.3" stroke="#ccc"></line><line x1="132.43" y1="466.2" x2="769.97" y2="466.2" stroke="#ddd" stroke-dasharray="3,2"></line><line x1="132.43" y1="397.1" x2="769.97" y2="397.1" stroke="#ddd" stroke-dasharray="3,2"></line><line x1="132.43" y1="328.1" x2="769.97" y2="328.1" stroke="#ddd" stroke-dasharray="3,2"></line><line x1="132.43" y1="259" x2="769.97" y2="259" stroke="#ddd" stroke-dasharray="3,2"></line><line x1="132.43" y1="189.9" x2="769.97" y2="189.9" stroke="#ddd" stroke-dasharray="3,2"></line><line x1="132.43" y1="120.8" x2="769.97" y2="120.8" stroke="#ddd" stroke-dasharray="3,2"></line></g><g class="AxisGridLines"><line x1="132.4" y1="535.30" x2="132.4" y2="93.90" stroke="#ddd" stroke-dasharray="3,2"></line><line x1="271" y1="535.30" x2="271" y2="93.90" stroke="#ddd" stroke-dasharray="3,2"></line><line x1="409.6" y1="535.30" x2="409.6" y2="93.90" stroke="#ddd" stroke-dasharray="3,2"></line><line x1="548.2" y1="535.30" x2="548.2" y2="93.90" stroke="#ddd" stroke-dasharray="3,2"></line><line x1="686.8" y1="535.30" x2="686.8" y2="93.90" stroke="#ddd" stroke-dasharray="3,2"></line></g></g><g clip-path="url(#boundsClip-3)"><g class="HeightedLegend clickable"><g class="legendMark"><rect x="779.968" y="410.7" width="51.00000000000001" height="14.4" fill="#fff" opacity="0"></rect><rect x="779.968" y="416.65" width="10" height="2.5" fill="#ca2628"></rect><text font-size="14.40" x="795.0" y="422.2" fill="#333"><tspan x="794.968" y="422.21999999999997">PM₁₀</tspan></text></g><g class="legendMark"><rect x="779.968" y="453.5" width="55.032000000000004" height="14.4" fill="#fff" opacity="0"></rect><rect x="779.968" y="459.45" width="10" height="2.5" fill="#3360a9"></rect><text font-size="14.40" x="795.0" y="465.0" fill="#333"><tspan x="794.968" y="465.02">PM₂.₅</tspan></text></g></g><g class="Lines"><rect x="132" y="94" width="638" height="441" fill="rgba(255,255,255,0)" opacity="0"></rect><g class="key-United-Kingdom_0"><path stroke="#3360a9" stroke-linecap="round" d="M132 191L146 229L160 263L174 258L188 277L202 306L216 310L229 312L243 321L257 316L271 339L285 347L299 350L313 356L327 373L340 357L354 350L368 363L382 367L396 368L410 372L424 372L437 379L451 390L465 396L479 408L493 410L507 416L521 421L534 423L548 433L562 434L576 446L590 445L604 446L618 448L631 449L645 452L659 453L673 457L687 452L701 459L715 456L728 455L742 459L756 458L770 461" fill="none" stroke-width="1.5"></path><g fill="#3360a9"><circle cx="132" cy="191" r="2"></circle><circle cx="146" cy="229" r="2"></circle><circle cx="160" cy="263" r="2"></circle><circle cx="174" cy="258" r="2"></circle><circle cx="188" cy="277" r="2"></circle><circle cx="202" cy="306" r="2"></circle><circle cx="216" cy="310" r="2"></circle><circle cx="229" cy="312" r="2"></circle><circle cx="243" cy="321" r="2"></circle><circle cx="257" cy="316" r="2"></circle><circle cx="271" cy="339" r="2"></circle><circle cx="285" cy="347" r="2"></circle><circle cx="299" cy="350" r="2"></circle><circle cx="313" cy="356" r="2"></circle><circle cx="327" cy="373" r="2"></circle><circle cx="340" cy="357" r="2"></circle><circle cx="354" cy="350" r="2"></circle><circle cx="368" cy="363" r="2"></circle><circle cx="382" cy="367" r="2"></circle><circle cx="396" cy="368" r="2"></circle><circle cx="410" cy="372" r="2"></circle><circle cx="424" cy="372" r="2"></circle><circle cx="437" cy="379" r="2"></circle><circle cx="451" cy="390" r="2"></circle><circle cx="465" cy="396" r="2"></circle><circle cx="479" cy="408" r="2"></circle><circle cx="493" cy="410" r="2"></circle><circle cx="507" cy="416" r="2"></circle><circle cx="521" cy="421" r="2"></circle><circle cx="534" cy="423" r="2"></circle><circle cx="548" cy="433" r="2"></circle><circle cx="562" cy="434" r="2"></circle><circle cx="576" cy="446" r="2"></circle><circle cx="590" cy="445" r="2"></circle><circle cx="604" cy="446" r="2"></circle><circle cx="618" cy="448" r="2"></circle><circle cx="631" cy="449" r="2"></circle><circle cx="645" cy="452" r="2"></circle><circle cx="659" cy="453" r="2"></circle><circle cx="673" cy="457" r="2"></circle><circle cx="687" cy="452" r="2"></circle><circle cx="701" cy="459" r="2"></circle><circle cx="715" cy="456" r="2"></circle><circle cx="728" cy="455" r="2"></circle><circle cx="742" cy="459" r="2"></circle><circle cx="756" cy="458" r="2"></circle><circle cx="770" cy="461" r="2"></circle></g></g><g class="key-United-Kingdom_1"><path stroke="#ca2628" stroke-linecap="round" d="M132 94L146 126L160 171L174 153L188 188L202 207L216 214L229 217L243 224L257 221L271 243L285 254L299 260L313 262L327 291L340 265L354 258L368 262L382 269L396 266L410 276L424 278L437 294L451 311L465 323L479 339L493 340L507 352L521 361L534 366L548 377L562 376L576 395L590 390L604 395L618 398L631 400L645 405L659 411L673 419L687 408L701 418L715 417L728 411L742 417L756 415L770 418" fill="none" stroke-width="1.5"></path><g fill="#ca2628"><circle cx="132" cy="94" r="2"></circle><circle cx="146" cy="126" r="2"></circle><circle cx="160" cy="171" r="2"></circle><circle cx="174" cy="153" r="2"></circle><circle cx="188" cy="188" r="2"></circle><circle cx="202" cy="207" r="2"></circle><circle cx="216" cy="214" r="2"></circle><circle cx="229" cy="217" r="2"></circle><circle cx="243" cy="224" r="2"></circle><circle cx="257" cy="221" r="2"></circle><circle cx="271" cy="243" r="2"></circle><circle cx="285" cy="254" r="2"></circle><circle cx="299" cy="260" r="2"></circle><circle cx="313" cy="262" r="2"></circle><circle cx="327" cy="291" r="2"></circle><circle cx="340" cy="265" r="2"></circle><circle cx="354" cy="258" r="2"></circle><circle cx="368" cy="262" r="2"></circle><circle cx="382" cy="269" r="2"></circle><circle cx="396" cy="266" r="2"></circle><circle cx="410" cy="276" r="2"></circle><circle cx="424" cy="278" r="2"></circle><circle cx="437" cy="294" r="2"></circle><circle cx="451" cy="311" r="2"></circle><circle cx="465" cy="323" r="2"></circle><circle cx="479" cy="339" r="2"></circle><circle cx="493" cy="340" r="2"></circle><circle cx="507" cy="352" r="2"></circle><circle cx="521" cy="361" r="2"></circle><circle cx="534" cy="366" r="2"></circle><circle cx="548" cy="377" r="2"></circle><circle cx="562" cy="376" r="2"></circle><circle cx="576" cy="395" r="2"></circle><circle cx="590" cy="390" r="2"></circle><circle cx="604" cy="395" r="2"></circle><circle cx="618" cy="398" r="2"></circle><circle cx="631" cy="400" r="2"></circle><circle cx="645" cy="405" r="2"></circle><circle cx="659" cy="411" r="2"></circle><circle cx="673" cy="419" r="2"></circle><circle cx="687" cy="408" r="2"></circle><circle cx="701" cy="418" r="2"></circle><circle cx="715" cy="417" r="2"></circle><circle cx="728" cy="411" r="2"></circle><circle cx="742" cy="417" r="2"></circle><circle cx="756" cy="415" r="2"></circle><circle cx="770" cy="418" r="2"></circle></g></g></g></g></g><g style="fill: #777;" class="SourcesFooter"><g style="fill: #777;" class="clickable"><text font-size="12.60" x="15.0" y="581.6"><tspan x="15" y="581.58">Source: UK DEFRA</tspan></text></g><text font-size="12.60" x="649.0" y="581.6"><tspan x="649.024" y="581.58"><a target='_blank' style='fill: #777;' href='https://ourworldindata.org'>OurWorldInData.org</a> • <a style="fill: #777;" href="http://creativecommons.org/licenses/by-sa/4.0/deed.en_US" target="_blank">CC BY-SA</a></tspan></text></g></g></svg>
